**kern	**silbe
*ICvox	*
*D:	*
*M4/4	*
*clefG2	*
r;	.
=1	=1
1r	.
=2	=2
1r	.
=3	=3
1r	.
=4	=4
2r	.
4r	.
8B	Well
8d	she's
=5	=5
8e	all
8e	you'd
8e	e-
8d	-ver
8e	want
8r	.
8B	She's
8d	the
=6	=6
8e	kind
8e	I
8e	like
8d	to
8e	flaunt
8B	and
8d	take
8B	to
=7	=7
4d	di-
8B	-nner
8r	.
2r	.
=8	=8
2r	.
4r	.
8B	But
8d	she
=9	=9
8e	al-
8e	-ways
8e	knows
8d	her
8e	place
8r	.
8B	She's
8d	got
=10	=10
4f#	style
8e	She's
8d	got
8e	grace
8r	.
8d	She's
8B	a
=11	=11
4d	wi-
8B	-nner
8r	.
2r	.
=12	=12
2r	.
4r	.
8B	She's
8d	a
=13	=13
4e	la-
8e	-dy
8r	.
2r	.
=14	=14
8f#	Yo
8e	_
8e	oh
8d	_
4d	oh
8d	she's
8B	a
=15	=15
4d	la-
8d	-dy
8r	.
2r	.
=16	=16
8A	Talk-
8B	-ing
8d	a-
4d	-bout
8B	that
8d	li-
8B	-ttle
=17	=17
4e	la-
8e	-dy
8r	.
2r	.
=18	=18
4r	.
8A	and
8B	the
8B	la-
8d	-dy
8d	is
8B	uh
=19	=19
16d	mine
16A	_
[4.B	_
2B]	_
=20	=20
2r	.
4r	.
8B	Well
8d	she's
=21	=21
8e	ne-
8e	-ver
8e	in
8d	the
8e	way
8r	.
8B	Al-
8d	-ways
=22	=22
8f#	some-
8e	-thing
8d	nice
8d	to
8e	say
8d	_
8d	What
8B	a
=23	=23
4d	bless-
8B	-ing
8r	.
2r	.
=24	=24
2r	.
4r	.
8B	I
8d	can
=25	=25
8e	leave
8e	her
8e	on
8d	her
8e	own
8d	_
8B	know-
8d	-in'
=26	=26
8f#	she's
8e	o-
8d	-kay
8d	a-
8e	-lone
8B	and
8d	there's
8d	no
=27	=27
4d	mess-
8B	-ing
8r	.
2r	.
=28	=28
2r	.
4r	.
8B	She's
8d	a
=29	=29
4e	la-
8e	-dy
8r	.
2r	.
=30	=30
8f#	Yo
8e	_
8e	oh
8d	_
4d	oh
8d	she's
8B	a
=31	=31
4d	la-
8d	-dy
8r	.
2r	.
=32	=32
8A	Talk-
8B	-ing
8d	a-
4d	-bout
8B	that
8d	li-
8B	-ttle
=33	=33
4e	la-
8e	-dy
8r	.
2r	.
=34	=34
4r	.
8A	and
8B	the
8B	la-
8d	-dy
8d	is
8B	uh
=35	=35
16d	mine
16A	_
[4.B	_
2B]	_
=36	=36
2r	.
4r	.
8c	Well
8c	she
=37	=37
*B-:	*
8d	ne-
8d	-ver
8d	asks
8r	.
8c	ve-
16c	-ry
8.c	much
8r	.
=38	=38
8e-	and
8e-	I
8e-	don't
16e-	re-
16d	-fuse
8B-	_
8B-	her
4r	.
=39	=39
8d	Al-
8d	-ways
8d	treat
8d	her
8c	with
16c	re-
8.c	-spect
16r	.
16c	I
=40	=40
8e-	ne-
8e-	-ver
8e-	would
16e-	a-
16d	-buse
8B-	_
8B-	her
4r	.
=41	=41
8d	What
8d	she's
8d	got
8d	is
8c	hard
16c	to
8.c	find
16r	.
16c	and
=42	=42
8e-	I
8e-	don't
8e-	want
16e-	to
16d	lose
8B-	_
8B-	her
4r	.
=43	=43
8d	Help
8d	me
8d	build
16d	a
8.c	moun-
8c	-tain
8c	from
8c	a
=44	=44
*M2/4	*
8e-	li-
8e-	-ttle
8e-	pot
8e-	of
=45	=45
*D:	*
*M4/4	*
[2d	clay
8d]	_
8c#	hey
8d	hey
[8e	hey
=46	=46
2.e]	_
4r	.
=47	=47
2r	.
4r	.
8B	Well
8d	she
=48	=48
8e	knows
8e	what
8e	I'm
8d	a-
8e	-bout
8r	.
8B	She
8d	can
=49	=49
8e	take
16d	what
8.d	I
8d	dish
8e	out
8B	And
8d	that's
8d	not
=50	=50
4d	ea-
8B	-sy
8r	.
2r	.
=51	=51
2r	.
4r	.
8B	Well
8d	she
=52	=52
8e	knows
8e	me
8e	through
8d	and
4e	through
8B	and
16d	she
[16f#	knows
=53	=53
8f#]	_
8e	just
8d	what
8d	to
8e	do
8B	and
8d	how
8d	to
=54	=54
4..d	please
16B	me
2r	.
=55	=55
2r	.
4r	.
8B	She's
8d	a
=56	=56
4.e	la-
8e	-dy
4.r	.
8f#	Oh
=57	=57
8e	_
8e	woh
8d	_
4.d	oh
8d	she's
8B	a
=58	=58
4d	la-
8d	-dy
8r	.
2r	.
=59	=59
8dd	Talk-
8cc#	-ing
8b	a-
4cc#	-bout
8B	the
8d	li-
8B	-ttle
=60	=60
4d	la-
8d	-dy
8r	.
2r	.
=61	=61
4r	.
8A	and
8B	the
8B	la-
8d	-dy
8d	is
8B	uh
=62	=62
16d	mine
16A	_
[4.B	_
2B]	_
=63	=63
8f#	Yeah
8a	_
8f#	yeah
8e	_
4d	_
8B	She's
8d	a
=64	=64
4e	la-
8e	-dy
8r	.
4.r	.
[8f#	Oh
=65	=65
4f#]	_
8e	woh
8d	_
4d	oh
8d	she's
8B	a
=66	=66
4d	la-
8d	-dy
8r	.
4.r	.
8d	Lis-
=67	=67
8d	-ten
8d	to
8d	me
8f#	pe-
8e	-ople
8d	she's
8d	a
[8e	la-
=68	=68
4e]	_
8e	-dy
8r	.
4.r	.
[8f#	Yeah
=69	=69
8f#]	_
4a	yeah
8b	yeah
4a	_
8d	she's
8B	a
=70	=70
4d	la-
8d	-dy
8r	.
4.r	.
[8D	Woh
=71	=71
8D]	_
8F#	_
8F#	woh
8A	_
8A	woh
8B	_
8e	She's
8d	a
=72	=72
4e	la-
8e	-dy
8r	.
4.r	.
[8f#	Talk-
=73	=73
8f#]	_
8e	-ing
8d	a-
8e	-bot
8r	.
8B	the
8d	li-
8B	-ttle
=74	=74
4d	la-
8d	-dy
8r	.
2r	.
=75	=75
8D	Woh
8F#	_
8F#	woh
8A	_
8A	woh
8B	_
8B	woh
8d	_
=76	=76
8d	woh
8e	_
8e	woh
8f#	_
8f#	woh
8a	_
8a	woh
8b	_
=77	=77
8b	woh
8a	_
8a	woh
8f#	_
16f#	woh
16e	_
8d	_
8d	She's
8B	a
=78	=78
4d	la-
8d	-dy
8r	.
2r	.
r;	.
r;	.
*-	*-
!!!ENC: Nathaniel Condit-Schultz